DEKAVirtualStudio/Resources/DEKA_TealOrange_33.cube
TITLE "D-TEK Teal Orange 33"
# Generated for D-TEK Virtual Studio acceptance testing (33x33x33)
LUT_3D_SIZE 9
DOMAIN_MIN 0.0 0.0 0.0
DOMAIN_MAX 1.0 1.0 1.0
0.000000 0.010000 0.045000
0.022141 0.009484 0.042612
0.139061 0.008999 0.040231
0.295840 0.008545 0.037857
0.472554 0.008123 0.035489
0.649282 0.007731 0.033130
0.806103 0.007370 0.030777
0.923094 0.007041 0.028431
0.980334 0.006742 0.026092
0.000000 0.063661 0.036994
0.028526 0.063250 0.034630
0.145494 0.062869 0.032272
0.302320 0.062520 0.029922
0.479082 0.062202 0.027578
0.655858 0.061915 0.025242
0.812726 0.061659 0.022913
0.929765 0.061434 0.020591
0.987052 0.061240 0.018276
0.000000 0.177440 0.029068
0.035071 0.177133 0.026727
0.152087 0.176857 0.024394
0.308960 0.176612 0.022067
0.485770 0.176399 0.019747
0.662593 0.176216 0.017435
0.819509 0.176065 0.015130
0.936595 0.175944 0.012831
0.993930 0.175855 0.010540
0.000000 0.331414 0.021222
0.041777 0.331211 0.018905
0.158840 0.331040 0.016595
0.315761 0.330900 0.014292
0.492618 0.330791 0.011996
0.669489 0.330713 0.009708
0.826452 0.330666 0.007426
0.943586 0.330650 0.005151
1.000000 0.330665 0.002884
0.000000 0.505661 0.013455
0.048642 0.505563 0.011162
0.165752 0.505497 0.008876
0.322721 0.505461 0.006597
0.499625 0.505456 0.004325
0.676544 0.505483 0.002060
0.833554 0.505540 0.000000
0.950736 0.505629 0.000000
1.000000 0.505749 0.000000
0.000000 0.680260 0.005769
0.055666 0.680267 0.003500
0.172825 0.680305 0.001237
0.329840 0.680374 0.000000
0.506792 0.680474 0.000000
0.683758 0.680605 0.000000
0.840817 0.680767 0.000000
0.958046 0.680960 0.000000
1.000000 0.681184 0.000000
0.005425 0.835289 0.000000
0.062851 0.835401 0.000000
0.180057 0.835543 0.000000
0.337120 0.835716 0.000000
0.514120 0.835921 0.000000
0.691133 0.836156 0.000000
0.848239 0.836423 0.000000
0.965515 0.836721 0.000000
1.000000 0.837050 0.000000
0.012722 0.950826 0.000000
0.070196 0.951042 0.000000
0.187449 0.951289 0.000000
0.344560 0.951567 0.000000
0.521607 0.951876 0.000000
0.698668 0.952216 0.000000
0.855821 0.952587 0.000000
0.973145 0.952989 0.000000
1.000000 0.953423 0.000000
0.020179 1.000000 0.000000
0.077700 1.000000 0.000000
0.195001 1.000000 0.000000
0.352159 1.000000 0.000000
0.529254 1.000000 0.000000
0.706362 1.000000 0.000000
0.863563 1.000000 0.000000
0.980934 1.000000 0.000000
1.000000 1.000000 0.000000
0.000000 0.009821 0.099462
0.022778 0.009316 0.097076
0.139703 0.008842 0.094697
0.296487 0.008398 0.092325
0.473206 0.007986 0.089961
0.649939 0.007605 0.087603
0.806765 0.007255 0.085253
0.923761 0.006936 0.082909
0.981005 0.006648 0.080573
0.000000 0.063518 0.091464
0.029180 0.063117 0.089102
0.146152 0.062747 0.086747
0.302983 0.062409 0.084399
0.479750 0.062101 0.082058
0.656531 0.061824 0.079724
0.813404 0.061579 0.077397
0.930447 0.061364 0.075077
0.987739 0.061181 0.072765
0.000000 0.177332 0.083546
0.035741 0.177036 0.081207
0.152761 0.176771 0.078876
0.309640 0.176536 0.076552
0.486454 0.176333 0.074235
0.663282 0.176161 0.071925
0.820203 0.176020 0.069622
0.937294 0.175910 0.067326
0.994633 0.175831 0.065037
0.000000 0.331342 0.075707
0.042462 0.331150 0.073393
0.159530 0.330989 0.071085
0.316456 0.330859 0.068785
0.493318 0.330761 0.066492
0.670194 0.330693 0.064205
0.827162 0.330657 0.061926
0.944300 0.330652 0.059654
1.000000 0.330677 0.057389
0.000000 0.505625 0.067949
0.049343 0.505537 0.065658
0.166459 0.505481 0.063375
0.323432 0.505456 0.061098
0.500341 0.505462 0.058828
0.677265 0.505499 0.056566
0.834280 0.505567 0.054310
0.951466 0.505666 0.052062
1.000000 0.505797 0.049821
0.000000 0.680259 0.060271
0.056384 0.680277 0.058004
0.173547 0.680325 0.055744
0.330568 0.680404 0.053491
0.507525 0.680515 0.051245
0.684496 0.680656 0.049006
0.841559 0.680829 0.046775
0.958792 0.681033 0.044550
1.000000 0.681267 0.042332
0.006155 0.835324 0.052673
0.063585 0.835446 0.050429
0.180796 0.835598 0.048193
0.337864 0.835782 0.045964
0.514868 0.835997 0.043742
0.691887 0.836243 0.041527
0.848997 0.836521 0.039319
0.966278 0.836829 0.037118
1.000000 0.837168 0.034924
0.013468 0.950896 0.045154
0.070946 0.951122 0.042935
0.188204 0.951380 0.040722
0.345320 0.951668 0.038517
0.522371 0.951988 0.036319
0.699437 0.952339 0.034127
0.856595 0.952720 0.031943
0.973924 0.953133 0.029766
1.000000 0.953577 0.027596
0.020941 1.000000 0.037716
0.078466 1.000000 0.035520
0.195772 1.000000 0.033331
0.352935 1.000000 0.031150
0.530034 1.000000 0.028975
0.707148 1.000000 0.026808
0.864354 1.000000 0.024647
0.981730 1.000000 0.022494
1.000000 1.000000 0.020347
0.000000 0.009646 0.213690
0.023417 0.009151 0.211306
0.140347 0.008688 0.208930
0.297135 0.008255 0.206561
0.473859 0.007853 0.204198
0.650597 0.007483 0.201843
0.807428 0.007143 0.199495
0.924428 0.006835 0.197154
0.981677 0.006557 0.194820
0.000000 0.063378 0.205700
0.029835 0.062988 0.203340
0.146812 0.062629 0.200987
0.303648 0.062301 0.198642
0.480419 0.062004 0.196303
0.657205 0.061738 0.193972
0.814083 0.061503 0.191648
0.931131 0.061299 0.189330
0.988428 0.061126 0.187020
0.000000 0.177228 0.197790
0.036412 0.176942 0.195454
0.153438 0.176687 0.193125
0.310320 0.176464 0.190803
0.487139 0.176271 0.188488
0.663973 0.176110 0.186181
0.820898 0.175979 0.183880
0.937994 0.175880 0.181587
0.995338 0.175812 0.179300
0.000000 0.331273 0.189960
0.043150 0.331092 0.187648
0.160222 0.330942 0.185342
0.317153 0.330822 0.183044
0.494019 0.330734 0.180753
0.670900 0.330677 0.178470
0.827873 0.330652 0.176193
0.945016 0.330657 0.173923
1.000000 0.330693 0.171660
0.000000 0.505591 0.182210
0.050047 0.505515 0.179921
0.167167 0.505469 0.177640
0.324145 0.505455 0.175366
0.501059 0.505471 0.173098
0.677987 0.505519 0.170838
0.835008 0.505597 0.168585
0.952199 0.505707 0.166339
1.000000 0.505848 0.164100
0.000000 0.680262 0.174539
0.057104 0.680289 0.172275
0.174272 0.680348 0.170017
0.331297 0.680438 0.167767
0.508259 0.680559 0.165523
0.685235 0.680712 0.163287
0.842303 0.680895 0.161058
0.959541 0.681109 0.158835
1.000000 0.681354 0.156620
0.006886 0.835362 0.166949
0.064321 0.835494 0.164708
0.181536 0.835657 0.162474
0.338609 0.835852 0.160248
0.515618 0.836077 0.158028
0.692642 0.836334 0.155815
0.849757 0.836622 0.153610
0.967043 0.836941 0.151411
1.000000 0.837291 0.149220
0.014215 0.950970 0.159439
0.071698 0.951206 0.157222
0.188961 0.951474 0.155012
0.346081 0.951773 0.152809
0.523138 0.952104 0.150613
0.700208 0.952465 0.148424
0.857371 0.952857 0.146242
0.974705 0.953280 0.144067
1.000000 0.953735 0.141900
0.021704 1.000000 0.152008
0.079235 1.000000 0.149815
0.196545 1.000000 0.147629
0.353713 1.000000 0.145449
0.530817 1.000000 0.143277
0.707935 1.000000 0.141112
0.865146 1.000000 0.138954
0.982526 1.000000 0.136803
1.000000 1.000000 0.134659
0.000000 0.009475 0.367762
0.024058 0.008990 0.365381
0.140993 0.008537 0.363007
0.297785 0.008115 0.360640
0.474514 0.007724 0.358281
0.651257 0.007364 0.355928
0.808092 0.007035 0.353582
0.925098 0.006737 0.351243
0.982352 0.006470 0.348912
0.000000 0.063242 0.359780
0.030492 0.062863 0.357423
0.147474 0.062514 0.355073
0.304314 0.062196 0.352730
0.481091 0.061910 0.350394
0.657881 0.061654 0.348065
0.814764 0.061430 0.345743
0.931817 0.061237 0.343428
0.989118 0.061074 0.341120
0.000000 0.177127 0.351878
0.037085 0.176852 0.349545
0.154115 0.176608 0.347219
0.311003 0.176395 0.344899
0.487827 0.176213 0.342587
0.664665 0.176062 0.340282
0.821595 0.175942 0.337983
0.938695 0.175853 0.335692
0.996044 0.175796 0.333408
0.000000 0.331208 0.344056
0.043839 0.331037 0.341747
0.160916 0.330898 0.339444
0.317852 0.330789 0.337148
0.494723 0.330712 0.334860
0.671608 0.330665 0.332578
0.828586 0.330650 0.330304
0.945734 0.330666 0.328037
1.000000 0.330712 0.325776
0.000000 0.505562 0.336314
0.050752 0.505496 0.334028
0.167877 0.505461 0.331750
0.324860 0.505457 0.329478
0.501779 0.505484 0.327213
0.678712 0.505542 0.324955
0.835737 0.505631 0.322704
0.952933 0.505751 0.320461
1.000000 0.505903 0.318224
0.000433 0.680268 0.328652
0.057825 0.680306 0.326390
0.174998 0.680375 0.324135
0.332028 0.680476 0.321887
0.508995 0.680608 0.319646
0.685975 0.680770 0.317412
0.843048 0.680964 0.315185
0.960291 0.681189 0.312965
1.000000 0.681445 0.310752
0.007618 0.835403 0.321070
0.065059 0.835546 0.318832
0.182279 0.835720 0.316600
0.339356 0.835925 0.314376
0.516370 0.836161 0.312159
0.693398 0.836428 0.309948
0.850518 0.836727 0.307745
0.967809 0.837056 0.305549
1.000000 0.837416 0.303360
0.014964 0.951046 0.313568
0.072451 0.951294 0.311353
0.189719 0.951572 0.309145
0.346844 0.951882 0.306945
0.523906 0.952223 0.304751
0.700981 0.952594 0.302565
0.858149 0.952997 0.300385
0.975487 0.953431 0.298213
1.000000 0.953896 0.296048
0.022469 1.000000 0.306145
0.080004 1.000000 0.303954
0.197319 1.000000 0.301771
0.354492 1.000000 0.299594
0.531601 1.000000 0.297424
0.708724 1.000000 0.295261
0.865939 1.000000 0.293106
0.983325 1.000000 0.290957
1.000000 1.000000 0.288815
0.000000 0.009307 0.541758
0.024700 0.008833 0.539379
0.141640 0.008390 0.537007
0.298437 0.007979 0.534643
0.475171 0.007598 0.532285
0.651918 0.007249 0.529935
0.808758 0.006930 0.527592
0.925769 0.006643 0.525255
0.983028 0.006387 0.522926
0.000000 0.063110 0.533784
0.031150 0.062741 0.531429
0.148137 0.062403 0.529081
0.304982 0.062096 0.526740
0.481763 0.061820 0.524407
0.658559 0.061575 0.522080
0.815446 0.061361 0.519760
0.932504 0.061178 0.517448
0.989810 0.061026 0.515143
0.000000 0.177031 0.525890
0.037760 0.176766 0.523559
0.154795 0.176532 0.521235
0.311687 0.176330 0.518918
0.488516 0.176158 0.516608
0.665358 0.176018 0.514305
0.822293 0.175909 0.512009
0.939399 0.175830 0.509720
0.996753 0.175783 0.507439
0.000000 0.331146 0.518076
0.044529 0.330986 0.515769
0.161612 0.330857 0.513468
0.318552 0.330759 0.511175
0.495428 0.330692 0.508889
0.672318 0.330656 0.506610
0.829301 0.330652 0.504338
0.946453 0.330678 0.502073
1.000000 0.330735 0.499815
0.000000 0.505536 0.510342
0.051459 0.505480 0.508058
0.168589 0.505456 0.505782
0.325576 0.505462 0.503512
0.502500 0.505500 0.501250
0.679438 0.505569 0.498995
0.836468 0.505668 0.496746
0.953668 0.505799 0.494505
1.000000 0.505961 0.492271
0.001151 0.680277 0.502688
0.058548 0.680326 0.500428
0.175726 0.680406 0.498175
0.332761 0.680517 0.495930
0.509732 0.680659 0.493691
0.686717 0.680833 0.491459
0.843795 0.681037 0.489235
0.961043 0.681272 0.487017
1.000000 0.681539 0.484807
0.008353 0.835448 0.495114
0.065798 0.835602 0.492878
0.183022 0.835786 0.490649
0.340105 0.836002 0.488427
0.517124 0.836248 0.486212
0.694156 0.836526 0.484004
0.851282 0.836835 0.481803
0.968577 0.837175 0.479610
1.000000 0.837546 0.477423
0.015714 0.951127 0.487620
0.073207 0.951385 0.485407
0.190479 0.951674 0.483202
0.347609 0.951994 0.481004
0.524675 0.952345 0.478813
0.701756 0.952728 0.476629
0.858928 0.953141 0.474452
0.976271 0.953586 0.472282
1.000000 0.954061 0.470119
0.023236 1.000000 0.480205
0.080776 1.000000 0.478017
0.198095 1.000000 0.475835
0.355273 1.000000 0.473661
0.532387 1.000000 0.471493
0.709515 1.000000 0.469333
0.866735 1.000000 0.467180
0.984125 1.000000 0.465034
1.000000 1.000000 0.462895
0.000000 0.009142 0.715754
0.025344 0.008679 0.713377
0.142288 0.008247 0.711008
0.299091 0.007846 0.708646
0.475829 0.007476 0.706291
0.652582 0.007137 0.703943
0.809426 0.006829 0.701602
0.926441 0.006552 0.699268
0.983705 0.006307 0.696942
0.000000 0.062981 0.707788
0.031810 0.062622 0.705435
0.148802 0.062295 0.703090
0.305652 0.061998 0.700752
0.482438 0.061733 0.698420
0.659238 0.061498 0.696096
0.816130 0.061295 0.693779
0.933193 0.061123 0.691469
0.990504 0.060982 0.689166
0.000000 0.176937 0.699902
0.038436 0.176683 0.697573
0.155475 0.176460 0.695252
0.312373 0.176268 0.692937
0.489206 0.176107 0.690630
0.666054 0.175977 0.688329
0.822994 0.175878 0.686036
0.940104 0.175811 0.683749
0.997462 0.175774 0.681470
0.000000 0.331089 0.692096
0.045222 0.330939 0.689791
0.162309 0.330820 0.687493
0.319254 0.330733 0.685203
0.496135 0.330677 0.682919
0.673030 0.330651 0.680642
0.830017 0.330657 0.678373
0.947175 0.330694 0.676110
1.000000 0.330762 0.673854
0.000000 0.505514 0.684370
0.052167 0.505469 0.682089
0.169302 0.505455 0.679815
0.326294 0.505472 0.677548
0.503223 0.505520 0.675288
0.680165 0.505599 0.673035
0.837200 0.505709 0.670789
0.954405 0.505851 0.668550
1.000000 0.506023 0.666319
0.001871 0.680290 0.676724
0.059273 0.680350 0.674467
0.176455 0.680440 0.672217
0.333495 0.680562 0.669973
0.510471 0.680715 0.667737
0.687461 0.680898 0.665508
0.844543 0.681113 0.663286
0.961796 0.681359 0.661071
1.000000 0.681636 0.658863
0.009088 0.835497 0.669158
0.066538 0.835661 0.666925
0.183768 0.835856 0.664698
0.340855 0.836082 0.662478
0.517879 0.836339 0.660266
0.694916 0.836628 0.658061
0.852046 0.836947 0.655862
0.969346 0.837297 0.653671
1.000000 0.837679 0.651487
0.016466 0.951211 0.661672
0.073963 0.951480 0.659462
0.191241 0.951779 0.657259
0.348376 0.952110 0.655064
0.525447 0.952472 0.652875
0.702532 0.952865 0.650693
0.859709 0.953289 0.648519
0.977057 0.953744 0.646351
1.000000 0.954230 0.644191
0.024004 1.000000 0.654266
0.081549 1.000000 0.652080
0.198873 1.000000 0.649901
0.356056 1.000000 0.647729
0.533174 1.000000 0.645564
0.710307 1.000000 0.643406
0.867532 1.000000 0.641255
0.984927 1.000000 0.639111
1.000000 1.000000 0.636974
0.000000 0.008982 0.869829
0.025989 0.008529 0.867455
0.142939 0.008107 0.865088
0.299746 0.007717 0.862728
0.476489 0.007357 0.860376
0.653246 0.007029 0.858030
0.810096 0.006732 0.855692
0.927116 0.006466 0.853360
0.984384 0.006230 0.851036
0.000000 0.062856 0.861871
0.032472 0.062508 0.859521
0.149468 0.062191 0.857178
0.306323 0.061905 0.854842
0.483114 0.061650 0.852513
0.659919 0.061426 0.850191
0.816816 0.061233 0.847877
0.933883 0.061072 0.845569
0.991199 0.060941 0.843268
0.000000 0.176847 0.853993
0.039114 0.176604 0.851667
0.156158 0.176391 0.849348
0.313060 0.176210 0.847036
0.489898 0.176059 0.844730
0.666751 0.175940 0.842432
0.823695 0.175852 0.840141
0.940810 0.175795 0.837857
0.998174 0.175769 0.835581
0.000000 0.331034 0.846196
0.045916 0.330895 0.843893
0.163008 0.330787 0.841598
0.319957 0.330710 0.839309
0.496843 0.330665 0.837028
0.673743 0.330650 0.834753
0.830735 0.330666 0.832486
0.947897 0.330714 0.830226
1.000000 0.330792 0.827973
0.000000 0.505495 0.838478
0.052877 0.505460 0.836199
0.170017 0.505457 0.833927
0.327014 0.505485 0.831662
0.503947 0.505543 0.829405
0.680895 0.505633 0.827154
0.837934 0.505754 0.824911
0.955144 0.505906 0.822674
1.000000 0.506089 0.820445
0.002592 0.680307 0.830840
0.059999 0.680377 0.828585
0.177186 0.680478 0.826337
0.334231 0.680610 0.824096
0.511211 0.680774 0.821862
0.688206 0.680968 0.819635
0.845293 0.681193 0.817415
0.962551 0.681450 0.815203
1.000000 0.681737 0.812997
0.009826 0.835549 0.823282
0.067281 0.835724 0.821050
0.184515 0.835929 0.818826
0.341607 0.836166 0.816609
0.518635 0.836434 0.814399
0.695678 0.836733 0.812196
0.852812 0.837063 0.810000
0.970117 0.837424 0.807811
1.000000 0.837816 0.805629
0.017220 0.951299 0.815804
0.074722 0.951578 0.813596
0.192004 0.951888 0.811396
0.349144 0.952229 0.809202
0.526219 0.952602 0.807016
0.703309 0.953005 0.804837
0.860491 0.953440 0.802664
0.977844 0.953905 0.800499
1.000000 0.954402 0.798341
0.024773 1.000000 0.808405
0.082323 1.000000 0.806222
0.199653 1.000000 0.804045
0.356840 1.000000 0.801875
0.533963 1.000000 0.799713
0.711101 1.000000 0.797557
0.868330 1.000000 0.795409
0.985730 1.000000 0.793267
1.000000 1.000000 0.791133
0.000000 0.008824 0.984061
0.026636 0.008382 0.981689
0.143591 0.007971 0.979325
0.300403 0.007591 0.976968
0.477150 0.007242 0.974617
0.653913 0.006925 0.972274
0.810767 0.006638 0.969938
0.927792 0.006382 0.967609
0.985065 0.006158 0.965287
0.000000 0.062734 0.976111
0.033135 0.062397 0.973764
0.150136 0.062090 0.971423
0.306996 0.061815 0.969089
0.483791 0.061570 0.966763
0.660601 0.061357 0.964443
0.817503 0.061175 0.962131
0.934575 0.061024 0.959826
0.991896 0.060904 0.957528
0.000000 0.176761 0.968242
0.039793 0.176528 0.965918
0.156842 0.176326 0.963601
0.313749 0.176155 0.961291
0.490592 0.176016 0.958988
0.667449 0.175907 0.956693
0.824399 0.175829 0.954404
0.941518 0.175783 0.952122
0.998887 0.175767 0.949848
0.000000 0.330984 0.960452
0.046611 0.330855 0.958152
0.163708 0.330758 0.955859
0.320662 0.330691 0.953573
0.497553 0.330656 0.951294
0.674457 0.330652 0.949022
0.831454 0.330679 0.946757
0.948622 0.330737 0.944499
1.000000 0.330826 0.942248
0.000000 0.505480 0.952742
0.053589 0.505456 0.950466
0.170733 0.505463 0.948196
0.327735 0.505501 0.945934
0.504673 0.505570 0.943679
0.681625 0.505671 0.941431
0.838670 0.505802 0.939190
0.955885 0.505965 0.936956
1.000000 0.506158 0.934729
0.003315 0.680327 0.945112
0.060727 0.680408 0.942860
0.177919 0.680520 0.940614
0.334968 0.680662 0.938375
0.511954 0.680836 0.936144
0.688953 0.681041 0.933920
0.846045 0.681277 0.931702
0.963308 0.681544 0.929492
1.000000 0.681842 0.927289
0.010565 0.835605 0.937562
0.068025 0.835790 0.935333
0.185264 0.836006 0.933112
0.342361 0.836253 0.930897
0.519394 0.836532 0.928689
0.696441 0.836841 0.926488
0.853580 0.837182 0.924295
0.970890 0.837553 0.922108
1.000000 0.837956 0.919929
0.017975 0.951390 0.930092
0.075482 0.951680 0.927887
0.192769 0.952001 0.925689
0.349913 0.952352 0.923498
0.526994 0.952735 0.921314
0.704089 0.953149 0.919137
0.861275 0.953594 0.916967
0.978633 0.954070 0.914805
1.000000 0.954577 0.912649
0.025545 1.000000 0.922702
0.083099 1.000000 0.920521
0.200434 1.000000 0.918346
0.357626 1.000000 0.916179
0.534754 1.000000 0.914019
0.711896 1.000000 0.911866
0.869130 1.000000 0.909720
0.986535 1.000000 0.907581
1.000000 1.000000 0.905449
0.000000 0.008671 1.000000
0.027285 0.008239 1.000000
0.144244 0.007839 1.000000
0.301061 0.007469 1.000000
0.477814 0.007131 1.000000
0.654580 0.006824 1.000000
0.811440 0.006548 1.000000
0.928469 0.006302 1.000000
0.985747 0.006088 1.000000
0.000000 0.062616 1.000000
0.033800 0.062289 1.000000
0.150806 0.061993 1.000000
0.307670 0.061728 1.000000
0.484471 0.061494 1.000000
0.661285 0.061292 1.000000
0.818192 0.061120 1.000000
0.935269 0.060979 1.000000
0.992594 0.060870 1.000000
0.000000 0.176679 1.000000
0.040474 0.176456 1.000000
0.157528 0.176265 1.000000
0.314440 0.176104 1.000000
0.491288 0.175975 1.000000
0.668150 0.175877 1.000000
0.825104 0.175810 1.000000
0.942228 0.175774 1.000000
0.999601 0.175769 1.000000
0.000000 0.330937 1.000000
0.047308 0.330819 1.000000
0.164410 0.330732 1.000000
0.321369 0.330676 1.000000
0.498264 0.330651 1.000000
0.675174 0.330658 1.000000
0.832176 0.330695 1.000000
0.949348 0.330764 0.999007
1.000000 0.330863 0.996759
0.000000 0.505468 1.000000
0.054302 0.505455 1.000000
0.171451 0.505472 1.000000
0.328458 0.505521 1.000000
0.505401 0.505601 0.998188
0.682358 0.505712 0.995942
0.839407 0.505854 0.993704
0.956627 0.506027 0.991472
1.000000 0.506231 0.989247
0.004040 0.680351 0.999620
0.061456 0.680442 0.997370
0.178653 0.680565 0.995126
0.335707 0.680718 0.992890
0.512698 0.680902 0.990661
0.689702 0.681118 0.988439
0.846799 0.681364 0.986224
0.964066 0.681642 0.984016
1.000000 0.681950 0.981816
0.011306 0.835664 0.992078
0.068770 0.835860 0.989851
0.186014 0.836087 0.987632
0.343116 0.836344 0.985420
0.520154 0.836633 0.983214
0.697206 0.836953 0.981016
0.854350 0.837304 0.978825
0.971665 0.837686 0.976641
1.000000 0.838100 0.974464
0.018732 0.951485 0.984616
0.076244 0.951785 0.982413
0.193535 0.952117 0.980218
0.350685 0.952479 0.978029
0.527770 0.952872 0.975847
0.704869 0.953297 0.973673
0.862061 0.953752 0.971506
0.979423 0.954239 0.969345
1.000000 0.954757 0.967192
0.026318 1.000000 0.977234
0.083877 1.000000 0.975055
0.201216 1.000000 0.972883
0.358413 1.000000 0.970718
0.535546 1.000000 0.968560
0.712693 1.000000 0.966410
0.869932 1.000000 0.964266
0.987342 1.000000 0.962130
1.000000 1.000000 0.960000
