DEKAVirtualStudio/Resources/DEKA_TealOrange_33.cube
TITLE "D-TEK Teal Orange 33"
# Generated for D-TEK Virtual Studio acceptance testing (33x33x33)
LUT_3D_SIZE 33
DOMAIN_MIN 0.0 0.0 0.0
DOMAIN_MAX 1.0 1.0 1.0
0.000000 0.010000 0.045000
0.000000 0.009868 0.044402
0.000000 0.009738 0.043805
0.001473 0.009610 0.043208
0.022141 0.009484 0.042612
0.046545 0.009360 0.042016
0.074374 0.009238 0.041420
0.105316 0.009117 0.040825
0.139061 0.008999 0.040231
0.175297 0.008883 0.039636
0.213713 0.008768 0.039043
0.253998 0.008656 0.038449
0.295840 0.008545 0.037857
0.338927 0.008437 0.037264
0.382950 0.008330 0.036672
0.427596 0.008225 0.036081
0.472554 0.008123 0.035489
0.517513 0.008022 0.034899
0.562162 0.007923 0.034309
0.606189 0.007826 0.033719
0.649282 0.007731 0.033130
0.691132 0.007638 0.032541
0.731426 0.007547 0.031952
0.769854 0.007458 0.031364
0.806103 0.007370 0.030777
0.839863 0.007285 0.030189
0.870823 0.007202 0.029603
0.898670 0.007120 0.029017
0.923094 0.007041 0.028431
0.943784 0.006963 0.027845
0.960428 0.006888 0.027261
0.972715 0.006814 0.026676
0.980334 0.006742 0.026092
0.000000 0.016690 0.042991
0.000000 0.016564 0.042395
0.000000 0.016441 0.041799
0.003051 0.016320 0.041204
0.023722 0.016200 0.040609
0.048129 0.016082 0.040014
0.075961 0.015967 0.039420
0.106907 0.015853 0.038827
0.140655 0.015741 0.038234
0.176894 0.015631 0.037641
0.215313 0.015524 0.037049
0.255600 0.015418 0.036457
0.297445 0.015314 0.035865
0.340536 0.015212 0.035274
0.384561 0.015111 0.034684
0.429210 0.015013 0.034094
0.474171 0.014917 0.033504
0.519133 0.014823 0.032915
0.563785 0.014730 0.032326
0.607814 0.014640 0.031738
0.650911 0.014551 0.031150
0.692764 0.014465 0.030563
0.733061 0.014380 0.029976
0.771492 0.014298 0.029389
0.807744 0.014217 0.028803
0.841507 0.014138 0.028218
0.872469 0.014061 0.027632
0.900320 0.013987 0.027048
0.924747 0.013914 0.026463
0.945440 0.013843 0.025879
0.962087 0.013774 0.025296
0.974377 0.013706 0.024713
0.981999 0.013641 0.024131
0.000000 0.028071 0.040987
0.000000 0.027952 0.040392
0.000000 0.027835 0.039798
0.004640 0.027720 0.039204
0.025313 0.027607 0.038611
0.049723 0.027496 0.038018
0.077558 0.027387 0.037425
0.108507 0.027280 0.036833
0.142258 0.027175 0.036241
0.178500 0.027071 0.035650
0.216922 0.026970 0.035059
0.257212 0.026870 0.034469
0.299060 0.026773 0.033879
0.342154 0.026677 0.033290
0.386182 0.026584 0.032701
0.430834 0.026492 0.032112
0.475798 0.026403 0.031524
0.520763 0.026315 0.030936
0.565417 0.026229 0.030349
0.609450 0.026145 0.029762
0.652550 0.026063 0.029176
0.694406 0.025983 0.028590
0.734706 0.025905 0.028005
0.773139 0.025829 0.027419
0.809395 0.025755 0.026835
0.843161 0.025683 0.026251
0.874126 0.025612 0.025667
0.901979 0.025544 0.025084
0.926410 0.025478 0.024501
0.947105 0.025413 0.023919
0.963755 0.025351 0.023337
0.976048 0.025290 0.022755
0.983673 0.025231 0.022174
0.000000 0.043832 0.038988
0.000000 0.043719 0.038395
0.000000 0.043609 0.037802
0.006238 0.043501 0.037210
0.026915 0.043394 0.036618
0.051328 0.043290 0.036026
0.079166 0.043187 0.035435
0.110117 0.043086 0.034844
0.143871 0.042988 0.034254
0.180116 0.042891 0.033665
0.218541 0.042796 0.033075
0.258834 0.042703 0.032486
0.300685 0.042612 0.031898
0.343782 0.042523 0.031310
0.387813 0.042436 0.030722
0.432468 0.042351 0.030135
0.477435 0.042268 0.029549
0.522403 0.042187 0.028963
0.567060 0.042107 0.028377
0.611096 0.042030 0.027791
0.654199 0.041955 0.027207
0.696058 0.041881 0.026622
0.736361 0.041810 0.026038
0.774797 0.041740 0.025455
0.811056 0.041673 0.024872
0.844824 0.041607 0.024289
0.875793 0.041543 0.023707
0.903649 0.041481 0.023125
0.928082 0.041421 0.022543
0.948781 0.041363 0.021963
0.965434 0.041307 0.021382
0.977730 0.041253 0.020802
0.985358 0.041201 0.020223
0.000000 0.063661 0.036994
0.000000 0.063555 0.036402
0.000000 0.063452 0.035811
0.007847 0.063350 0.035220
0.028526 0.063250 0.034630
0.052942 0.063152 0.034039
0.080783 0.063056 0.033450
0.111737 0.062962 0.032861
0.145494 0.062869 0.032272
0.181742 0.062779 0.031684
0.220170 0.062691 0.031096
0.260466 0.062605 0.030509
0.302320 0.062520 0.029922
0.345420 0.062438 0.029335
0.389454 0.062357 0.028749
0.434112 0.062279 0.028164
0.479082 0.062202 0.027578
0.524053 0.062127 0.026994
0.568713 0.062055 0.026410
0.612752 0.061984 0.025826
0.655858 0.061915 0.025242
0.697720 0.061848 0.024659
0.738026 0.061783 0.024077
0.776465 0.061720 0.023495
0.812726 0.061659 0.022913
0.846498 0.061600 0.022332
0.877469 0.061542 0.021751
0.905329 0.061487 0.021171
0.929765 0.061434 0.020591
0.950467 0.061382 0.020012
0.967123 0.061333 0.019433
0.979421 0.061285 0.018854
0.987052 0.061240 0.018276
0.000000 0.087248 0.035005
0.000000 0.087149 0.034415
0.000000 0.087052 0.033825
0.009465 0.086956 0.033235
0.030148 0.086863 0.032646
0.054566 0.086771 0.032058
0.082410 0.086682 0.031470
0.113368 0.086594 0.030882
0.147127 0.086509 0.030295
0.183378 0.086425 0.029708
0.221809 0.086343 0.029122
0.262109 0.086263 0.028536
0.303965 0.086185 0.027951
0.347068 0.086110 0.027366
0.391105 0.086036 0.026781
0.435766 0.085963 0.026197
0.480739 0.085893 0.025613
0.525713 0.085825 0.025030
0.570376 0.085759 0.024447
0.614418 0.085695 0.023865
0.657527 0.085632 0.023283
0.699391 0.085572 0.022701
0.739701 0.085514 0.022120
0.778143 0.085457 0.021540
0.814407 0.085402 0.020960
0.848182 0.085350 0.020380
0.879156 0.085299 0.019801
0.907018 0.085250 0.019222
0.931458 0.085204 0.018644
0.952162 0.085159 0.018066
0.968821 0.085116 0.017488
0.981123 0.085075 0.016911
0.988757 0.085036 0.016335
0.000000 0.114281 0.033021
0.000000 0.114188 0.032432
0.000000 0.114098 0.031844
0.011093 0.114009 0.031256
0.031779 0.113922 0.030668
0.056201 0.113837 0.030081
0.084047 0.113754 0.029495
0.115008 0.113673 0.028909
0.148771 0.113594 0.028323
0.185025 0.113517 0.027738
0.223458 0.113441 0.027153
0.263761 0.113368 0.026568
0.305620 0.113297 0.025984
0.348726 0.113227 0.025401
0.392766 0.113160 0.024818
0.437430 0.113094 0.024235
0.482406 0.113031 0.023653
0.527383 0.112969 0.023071
0.572049 0.112909 0.022490
0.616094 0.112852 0.021909
0.659206 0.112796 0.021329
0.701073 0.112742 0.020749
0.741385 0.112690 0.020169
0.779831 0.112640 0.019590
0.816098 0.112592 0.019011
0.849876 0.112546 0.018433
0.880853 0.112502 0.017855
0.908718 0.112460 0.017278
0.933160 0.112419 0.016701
0.953868 0.112381 0.016125
0.970530 0.112345 0.015549
0.982834 0.112310 0.014973
0.990471 0.112278 0.014398
0.000000 0.144449 0.031042
0.000000 0.144363 0.030455
0.000000 0.144278 0.029868
0.012732 0.144196 0.029281
0.033420 0.144116 0.028695
0.057845 0.144037 0.028110
0.085695 0.143961 0.027525
0.116658 0.143886 0.026940
0.150424 0.143814 0.026356
0.186681 0.143743 0.025772
0.225117 0.143674 0.025189
0.265423 0.143608 0.024606
0.307285 0.143543 0.024023
0.350394 0.143480 0.023441
0.394437 0.143419 0.022860
0.439104 0.143360 0.022278
0.484083 0.143303 0.021698
0.529063 0.143248 0.021117
0.573732 0.143195 0.020538
0.617780 0.143144 0.019958
0.660895 0.143094 0.019379
0.702765 0.143047 0.018801
0.743080 0.143002 0.018223
0.781528 0.142958 0.017645
0.817798 0.142917 0.017068
0.851579 0.142877 0.016491
0.882559 0.142839 0.015915
0.910428 0.142804 0.015339
0.934873 0.142770 0.014764
0.955583 0.142738 0.014189
0.972248 0.142708 0.013614
0.984556 0.142681 0.013040
0.992195 0.142655 0.012466
0.000000 0.177440 0.029068
0.000000 0.177360 0.028482
0.000000 0.177282 0.027897
0.014380 0.177207 0.027312
0.035071 0.177133 0.026727
0.059499 0.177061 0.026143
0.087352 0.176991 0.025559
0.118318 0.176923 0.024976
0.152087 0.176857 0.024394
0.188347 0.176793 0.023811
0.226787 0.176731 0.023229
0.267095 0.176671 0.022648
0.308960 0.176612 0.022067
0.352072 0.176556 0.021486
0.396118 0.176502 0.020906
0.440788 0.176449 0.020327
0.485770 0.176399 0.019747
0.530753 0.176350 0.019169
0.575425 0.176304 0.018590
0.619476 0.176259 0.018012
0.662593 0.176216 0.017435
0.704467 0.176175 0.016858
0.744785 0.176136 0.016281
0.783236 0.176100 0.015705
0.819509 0.176065 0.015130
0.853293 0.176032 0.014554
0.884276 0.176000 0.013980
0.912147 0.175971 0.013405
0.936595 0.175944 0.012831
0.957309 0.175919 0.012258
0.973977 0.175896 0.011685
0.986287 0.175874 0.011112
0.993930 0.175855 0.010540
0.000000 0.212943 0.027099
0.000000 0.212870 0.026514
0.000000 0.212799 0.025931
0.016038 0.212730 0.025347
0.036733 0.212662 0.024764
0.061163 0.212597 0.024181
0.089019 0.212534 0.023599
0.119988 0.212472 0.023018
0.153760 0.212413 0.022436
0.190023 0.212355 0.021856
0.228466 0.212300 0.021275
0.268777 0.212246 0.020695
0.310645 0.212194 0.020116
0.353760 0.212144 0.019537
0.397809 0.212096 0.018958
0.442482 0.212051 0.018380
0.487467 0.212007 0.017802
0.532452 0.211965 0.017225
0.577128 0.211924 0.016648
0.621181 0.211886 0.016072
0.664302 0.211850 0.015496
0.706179 0.211816 0.014920
0.746500 0.211784 0.014345
0.784954 0.211753 0.013770
0.821230 0.211725 0.013196
0.855017 0.211698 0.012622
0.886003 0.211674 0.012049
0.913877 0.211651 0.011476
0.938328 0.211630 0.010904
0.959044 0.211612 0.010332
0.975715 0.211595 0.009760
0.988029 0.211580 0.009189
0.995674 0.211567 0.008618
0.000000 0.250648 0.025135
0.000000 0.250581 0.024552
0.001057 0.250516 0.023969
0.017707 0.250454 0.023387
0.038404 0.250393 0.022806
0.062838 0.250334 0.022225
0.090696 0.250277 0.021644
0.121669 0.250222 0.021064
0.155443 0.250169 0.020484
0.191709 0.250118 0.019905
0.230155 0.250069 0.019326
0.270469 0.250022 0.018747
0.312341 0.249977 0.018169
0.355458 0.249934 0.017592
0.399510 0.249892 0.017015
0.444186 0.249853 0.016438
0.489174 0.249815 0.015862
0.534162 0.249780 0.015286
0.578841 0.249746 0.014711
0.622897 0.249715 0.014136
0.666021 0.249685 0.013561
0.707900 0.249657 0.012987
0.748224 0.249632 0.012414
0.786681 0.249608 0.011840
0.822961 0.249586 0.011268
0.856750 0.249566 0.010695
0.887739 0.249548 0.010124
0.915616 0.249532 0.009552
0.940070 0.249518 0.008981
0.960790 0.249506 0.008411
0.977464 0.249495 0.007841
0.989780 0.249487 0.007271
0.997429 0.249481 0.006702
0.000000 0.290241 0.023176
0.000000 0.290181 0.022594
0.002732 0.290123 0.022013
0.019385 0.290067 0.021433
0.040085 0.290013 0.020853
0.064522 0.289961 0.020273
0.092384 0.289910 0.019694
0.123359 0.289862 0.019115
0.157137 0.289816 0.018537
0.193405 0.289771 0.017959
0.231854 0.289729 0.017382
0.272171 0.289688 0.016805
0.314046 0.289649 0.016228
0.357166 0.289612 0.015652
0.401221 0.289578 0.015077
0.445900 0.289545 0.014501
0.490891 0.289514 0.013927
0.535882 0.289485 0.013352
0.580564 0.289458 0.012778
0.624623 0.289433 0.012205
0.667750 0.289410 0.011632
0.709632 0.289389 0.011059
0.749959 0.289369 0.010487
0.788419 0.289352 0.009916
0.824701 0.289337 0.009344
0.858494 0.289323 0.008774
0.889486 0.289312 0.008203
0.917366 0.289302 0.007633
0.941823 0.289295 0.007064
0.962545 0.289289 0.006495
0.979222 0.289285 0.005926
0.991542 0.289283 0.005358
0.999193 0.289284 0.004790
0.000000 0.331414 0.021222
0.000000 0.331360 0.020642
0.004417 0.331309 0.020062
0.021073 0.331259 0.019483
0.041777 0.331211 0.018905
0.066216 0.331166 0.018327
0.094081 0.331122 0.017749
0.125059 0.331080 0.017172
0.158840 0.331040 0.016595
0.195111 0.331002 0.016018
0.233563 0.330966 0.015443
0.273883 0.330932 0.014867
0.315761 0.330900 0.014292
0.358884 0.330870 0.013717
0.402942 0.330842 0.013143
0.447624 0.330815 0.012570
0.492618 0.330791 0.011996
0.537612 0.330768 0.011423
0.582296 0.330748 0.010851
0.626359 0.330729 0.010279
0.669489 0.330713 0.009708
0.711374 0.330698 0.009136
0.751704 0.330685 0.008566
0.790167 0.330675 0.007996
0.826452 0.330666 0.007426
0.860247 0.330659 0.006857
0.891243 0.330654 0.006288
0.919126 0.330651 0.005719
0.943586 0.330650 0.005151
0.964311 0.330651 0.004584
0.980991 0.330654 0.004017
0.993313 0.330658 0.003450
1.000000 0.330665 0.002884
0.000000 0.373853 0.019273
0.000000 0.373806 0.018694
0.006113 0.373761 0.018116
0.022772 0.373718 0.017539
0.043478 0.373677 0.016962
0.067920 0.373638 0.016385
0.095788 0.373601 0.015809
0.126769 0.373565 0.015233
0.160553 0.373532 0.014658
0.196828 0.373500 0.014083
0.235282 0.373471 0.013508
0.275605 0.373443 0.012934
0.317486 0.373418 0.012361
0.360612 0.373394 0.011788
0.404673 0.373372 0.011215
0.449358 0.373353 0.010643
0.494354 0.373335 0.010071
0.539352 0.373319 0.009500
0.584039 0.373305 0.008929
0.628105 0.373293 0.008358
0.671237 0.373283 0.007788
0.713126 0.373275 0.007219
0.753458 0.373269 0.006649
0.791925 0.373264 0.006081
0.828213 0.373262 0.005513
0.862011 0.373262 0.004945
0.893009 0.373263 0.004377
0.920895 0.373267 0.003810
0.945358 0.373272 0.003244
0.966086 0.373280 0.002678
0.982769 0.373289 0.002112
0.995095 0.373300 0.001547
1.000000 0.373314 0.000982
0.000000 0.417248 0.017329
0.000000 0.417208 0.016752
0.007818 0.417170 0.016175
0.024480 0.417133 0.015599
0.045189 0.417098 0.015023
0.069635 0.417066 0.014448
0.097505 0.417035 0.013874
0.128489 0.417006 0.013299
0.162276 0.416979 0.012725
0.198554 0.416954 0.012152
0.237011 0.416932 0.011579
0.277337 0.416911 0.011007
0.319221 0.416891 0.010435
0.362350 0.416874 0.009863
0.406414 0.416859 0.009292
0.451102 0.416846 0.008721
0.496101 0.416835 0.008151
0.541102 0.416825 0.007581
0.585792 0.416818 0.007011
0.629861 0.416812 0.006442
0.672996 0.416809 0.005874
0.714887 0.416807 0.005306
0.755223 0.416808 0.004738
0.793692 0.416810 0.004171
0.829983 0.416814 0.003604
0.863785 0.416820 0.003038
0.894786 0.416828 0.002472
0.922675 0.416838 0.001906
0.947141 0.416850 0.001341
0.967872 0.416864 0.000777
0.984558 0.416880 0.000213
0.996886 0.416898 0.000000
1.000000 0.416918 0.000000
0.000000 0.461288 0.015389
0.000000 0.461254 0.014814
0.009533 0.461222 0.014239
0.026198 0.461192 0.013664
0.046910 0.461164 0.013090
0.071359 0.461138 0.012517
0.099232 0.461114 0.011943
0.130220 0.461092 0.011371
0.164009 0.461071 0.010798
0.200290 0.461053 0.010226
0.238750 0.461037 0.009655
0.279079 0.461022 0.009084
0.320966 0.461010 0.008513
0.364098 0.460999 0.007943
0.408165 0.460990 0.007373
0.452856 0.460984 0.006804
0.497858 0.460979 0.006235
0.542862 0.460976 0.005667
0.587555 0.460975 0.005099
0.631626 0.460976 0.004532
0.674765 0.460979 0.003964
0.716659 0.460984 0.003398
0.756998 0.460991 0.002832
0.795470 0.461000 0.002266
0.831764 0.461011 0.001701
0.865568 0.461023 0.001136
0.896572 0.461038 0.000571
0.924464 0.461055 0.000007
0.948933 0.461073 0.000000
0.969667 0.461094 0.000000
0.986356 0.461116 0.000000
0.998688 0.461140 0.000000
1.000000 0.461167 0.000000
0.000000 0.505661 0.013455
0.000000 0.505634 0.012881
0.011259 0.505609 0.012308
0.027926 0.505585 0.011735
0.048642 0.505563 0.011162
0.073093 0.505544 0.010590
0.100970 0.505526 0.010018
0.131960 0.505511 0.009447
0.165752 0.505497 0.008876
0.202036 0.505485 0.008306
0.240499 0.505475 0.007736
0.280831 0.505467 0.007166
0.322721 0.505461 0.006597
0.365856 0.505457 0.006028
0.409926 0.505455 0.005460
0.454619 0.505455 0.004892
0.499625 0.505456 0.004325
0.544632 0.505460 0.003758
0.589328 0.505466 0.003192
0.633402 0.505473 0.002626
0.676544 0.505483 0.002060
0.718441 0.505494 0.001495
0.758783 0.505508 0.000930
0.797258 0.505523 0.000366
0.833554 0.505540 0.000000
0.867362 0.505560 0.000000
0.898369 0.505581 0.000000
0.926264 0.505604 0.000000
0.950736 0.505629 0.000000
0.971473 0.505656 0.000000
0.988164 0.505685 0.000000
1.000000 0.505716 0.000000
1.000000 0.505749 0.000000
0.000000 0.550056 0.011526
0.000682 0.550035 0.010954
0.012994 0.550017 0.010382
0.029665 0.550000 0.009810
0.050383 0.549985 0.009239
0.074837 0.549972 0.008668
0.102717 0.549960 0.008098
0.133710 0.549951 0.007528
0.167505 0.549944 0.006959
0.203792 0.549939 0.006390
0.242258 0.549935 0.005821
0.282593 0.549934 0.005253
0.324486 0.549934 0.004686
0.367624 0.549937 0.004119
0.411697 0.549941 0.003552
0.456393 0.549948 0.002986
0.501402 0.549956 0.002420
0.546411 0.549966 0.001854
0.591110 0.549978 0.001289
0.635188 0.549993 0.000725
0.678332 0.550009 0.000161
0.720233 0.550027 0.000000
0.760577 0.550047 0.000000
0.799055 0.550068 0.000000
0.835355 0.550092 0.000000
0.869166 0.550118 0.000000
0.900175 0.550146 0.000000
0.928073 0.550175 0.000000
0.952548 0.550207 0.000000
0.973288 0.550241 0.000000
0.989983 0.550276 0.000000
1.000000 0.550314 0.000000
1.000000 0.550353 0.000000
0.000000 0.594162 0.009602
0.002424 0.594148 0.009031
0.014739 0.594135 0.008461
0.031413 0.594125 0.007891
0.052134 0.594117 0.007321
0.076591 0.594110 0.006752
0.104474 0.594105 0.006183
0.135470 0.594103 0.005615
0.169268 0.594102 0.005047
0.205558 0.594103 0.004479
0.244027 0.594106 0.003912
0.284365 0.594112 0.003346
0.326261 0.594119 0.002779
0.369402 0.594128 0.002214
0.413478 0.594139 0.001649
0.458177 0.594151 0.001084
0.503189 0.594166 0.000519
0.548201 0.594183 0.000000
0.592903 0.594202 0.000000
0.636984 0.594222 0.000000
0.680131 0.594245 0.000000
0.722034 0.594270 0.000000
0.762382 0.594296 0.000000
0.800863 0.594324 0.000000
0.837166 0.594355 0.000000
0.870979 0.594387 0.000000
0.901992 0.594421 0.000000
0.929893 0.594458 0.000000
0.954371 0.594496 0.000000
0.975114 0.594536 0.000000
0.991811 0.594578 0.000000
1.000000 0.594622 0.000000
1.000000 0.594668 0.000000
0.000000 0.637667 0.007683
0.004177 0.637659 0.007114
0.016494 0.637654 0.006545
0.033171 0.637650 0.005976
0.053895 0.637648 0.005408
0.078356 0.637648 0.004840
0.106241 0.637650 0.004273
0.137240 0.637654 0.003706
0.171041 0.637659 0.003139
0.207334 0.637667 0.002573
0.245806 0.637677 0.002008
0.286147 0.637689 0.001443
0.328046 0.637702 0.000878
0.371190 0.637718 0.000314
0.415269 0.637735 0.000000
0.459971 0.637755 0.000000
0.504986 0.637776 0.000000
0.550001 0.637799 0.000000
0.594706 0.637825 0.000000
0.638789 0.637852 0.000000
0.681940 0.637881 0.000000
0.723846 0.637912 0.000000
0.764197 0.637945 0.000000
0.802680 0.637980 0.000000
0.838986 0.638017 0.000000
0.872803 0.638056 0.000000
0.903818 0.638096 0.000000
0.931722 0.638139 0.000000
0.956203 0.638184 0.000000
0.976949 0.638230 0.000000
0.993650 0.638279 0.000000
1.000000 0.638329 0.000000
1.000000 0.638382 0.000000
0.000000 0.680260 0.005769
0.005939 0.680259 0.005201
0.018260 0.680260 0.004633
0.034939 0.680263 0.004066
0.055666 0.680267 0.003500
0.080130 0.680274 0.002933
0.108018 0.680282 0.002368
0.139020 0.680293 0.001802
0.172825 0.680305 0.001237
0.209120 0.680319 0.000673
0.247595 0.680336 0.000109
0.287939 0.680354 0.000000
0.329840 0.680374 0.000000
0.372988 0.680396 0.000000
0.417070 0.680420 0.000000
0.461775 0.680446 0.000000
0.506792 0.680474 0.000000
0.551811 0.680504 0.000000
0.596519 0.680535 0.000000
0.640605 0.680569 0.000000
0.683758 0.680605 0.000000
0.725668 0.680642 0.000000
0.766021 0.680682 0.000000
0.804508 0.680723 0.000000
0.840817 0.680767 0.000000
0.874636 0.680812 0.000000
0.905655 0.680860 0.000000
0.933562 0.680909 0.000000
0.958046 0.680960 0.000000
0.978795 0.681013 0.000000
0.995498 0.681068 0.000000
1.000000 0.681125 0.000000
1.000000 0.681184 0.000000
0.000057 0.721631 0.003860
0.007711 0.721636 0.003293
0.020035 0.721643 0.002727
0.036718 0.721652 0.002162
0.057448 0.721663 0.001596
0.081914 0.721677 0.001032
0.109805 0.721692 0.000467
0.140810 0.721709 0.000000
0.174618 0.721727 0.000000
0.210916 0.721748 0.000000
0.249394 0.721771 0.000000
0.289741 0.721796 0.000000
0.331645 0.721822 0.000000
0.374796 0.721851 0.000000
0.418880 0.721882 0.000000
0.463589 0.721914 0.000000
0.508609 0.721948 0.000000
0.553631 0.721985 0.000000
0.598342 0.722023 0.000000
0.642431 0.722063 0.000000
0.685587 0.722106 0.000000
0.727499 0.722150 0.000000
0.767856 0.722196 0.000000
0.806346 0.722244 0.000000
0.842657 0.722294 0.000000
0.876480 0.722346 0.000000
0.907502 0.722400 0.000000
0.935411 0.722455 0.000000
0.959898 0.722513 0.000000
0.980650 0.722573 0.000000
0.997357 0.722634 0.000000
1.000000 0.722698 0.000000
1.000000 0.722763 0.000000
0.001837 0.761466 0.001956
0.009493 0.761478 0.001391
0.021820 0.761492 0.000826
0.038506 0.761508 0.000262
0.059239 0.761525 0.000000
0.083708 0.761545 0.000000
0.111602 0.761566 0.000000
0.142610 0.761590 0.000000
0.176421 0.761615 0.000000
0.212722 0.761643 0.000000
0.251203 0.761672 0.000000
0.291553 0.761703 0.000000
0.333460 0.761737 0.000000
0.376613 0.761772 0.000000
0.420701 0.761809 0.000000
0.465413 0.761848 0.000000
0.510436 0.761889 0.000000
0.555460 0.761932 0.000000
0.600174 0.761976 0.000000
0.644267 0.762023 0.000000
0.687426 0.762072 0.000000
0.729341 0.762123 0.000000
0.769701 0.762175 0.000000
0.808193 0.762230 0.000000
0.844508 0.762286 0.000000
0.878333 0.762345 0.000000
0.909358 0.762405 0.000000
0.937271 0.762468 0.000000
0.961760 0.762532 0.000000
0.982516 0.762598 0.000000
0.999225 0.762666 0.000000
1.000000 0.762736 0.000000
1.000000 0.762808 0.000000
0.003626 0.799456 0.000057
0.011286 0.799475 0.000000
0.023615 0.799495 0.000000
0.040304 0.799517 0.000000
0.061040 0.799542 0.000000
0.085512 0.799568 0.000000
0.113409 0.799596 0.000000
0.144420 0.799626 0.000000
0.178234 0.799658 0.000000
0.214538 0.799692 0.000000
0.253022 0.799727 0.000000
0.293375 0.799765 0.000000
0.335285 0.799805 0.000000
0.378441 0.799847 0.000000
0.422532 0.799890 0.000000
0.467246 0.799936 0.000000
0.512273 0.799983 0.000000
0.557300 0.800033 0.000000
0.602017 0.800084 0.000000
0.646112 0.800137 0.000000
0.689275 0.800193 0.000000
0.731193 0.800250 0.000000
0.771555 0.800309 0.000000
0.810051 0.800370 0.000000
0.846369 0.800433 0.000000
0.880197 0.800498 0.000000
0.911225 0.800565 0.000000
0.939140 0.800634 0.000000
0.963633 0.800705 0.000000
0.984391 0.800778 0.000000
1.000000 0.800852 0.000000
1.000000 0.800929 0.000000
1.000000 0.801007 0.000000
0.005425 0.835289 0.000000
0.013088 0.835314 0.000000
0.025421 0.835341 0.000000
0.042112 0.835370 0.000000
0.062851 0.835401 0.000000
0.087326 0.835433 0.000000
0.115227 0.835468 0.000000
0.146240 0.835505 0.000000
0.180057 0.835543 0.000000
0.216364 0.835583 0.000000
0.254851 0.835626 0.000000
0.295207 0.835670 0.000000
0.337120 0.835716 0.000000
0.380279 0.835765 0.000000
0.424373 0.835815 0.000000
0.469090 0.835867 0.000000
0.514120 0.835921 0.000000
0.559150 0.835977 0.000000
0.603870 0.836035 0.000000
0.647968 0.836095 0.000000
0.691133 0.836156 0.000000
0.733054 0.836220 0.000000
0.773420 0.836286 0.000000
0.811918 0.836353 0.000000
0.848239 0.836423 0.000000
0.882070 0.836495 0.000000
0.913101 0.836568 0.000000
0.941020 0.836643 0.000000
0.965515 0.836721 0.000000
0.986276 0.836800 0.000000
1.000000 0.836881 0.000000
1.000000 0.836964 0.000000
1.000000 0.837050 0.000000
0.007235 0.868654 0.000000
0.014900 0.868686 0.000000
0.027236 0.868719 0.000000
0.043930 0.868754 0.000000
0.064672 0.868792 0.000000
0.089150 0.868831 0.000000
0.117054 0.868872 0.000000
0.148070 0.868915 0.000000
0.181890 0.868960 0.000000
0.218200 0.869007 0.000000
0.256690 0.869056 0.000000
0.297049 0.869107 0.000000
0.338965 0.869160 0.000000
0.382127 0.869214 0.000000
0.426224 0.869271 0.000000
0.470944 0.869330 0.000000
0.515976 0.869390 0.000000
0.561010 0.869453 0.000000
0.605733 0.869517 0.000000
0.649834 0.869584 0.000000
0.693002 0.869652 0.000000
0.734926 0.869722 0.000000
0.775294 0.869794 0.000000
0.813796 0.869869 0.000000
0.850120 0.869945 0.000000
0.883954 0.870023 0.000000
0.914987 0.870103 0.000000
0.942909 0.870185 0.000000
0.967408 0.870268 0.000000
0.988172 0.870354 0.000000
1.000000 0.870442 0.000000
1.000000 0.870532 0.000000
1.000000 0.870623 0.000000
0.009054 0.899240 0.000000
0.016722 0.899277 0.000000
0.029061 0.899317 0.000000
0.045758 0.899359 0.000000
0.066503 0.899403 0.000000
0.090985 0.899449 0.000000
0.118891 0.899496 0.000000
0.149911 0.899546 0.000000
0.183733 0.899598 0.000000
0.220046 0.899651 0.000000
0.258539 0.899707 0.000000
0.298901 0.899764 0.000000
0.340820 0.899823 0.000000
0.383985 0.899885 0.000000
0.428085 0.899948 0.000000
0.472808 0.900013 0.000000
0.517843 0.900080 0.000000
0.562879 0.900149 0.000000
0.607605 0.900220 0.000000
0.651709 0.900293 0.000000
0.694881 0.900368 0.000000
0.736807 0.900445 0.000000
0.777179 0.900523 0.000000
0.815684 0.900604 0.000000
0.852010 0.900687 0.000000
