DEKAVirtualStudio/Resources/DEKA_TealOrange_33.cube
TITLE "D-TEK Teal Orange 33"
# Generated for D-TEK Virtual Studio acceptance testing (33x33x33)
LUT_3D_SIZE 5
DOMAIN_MIN 0.0 0.0 0.0
DOMAIN_MAX 1.0 1.0 1.0
0.000000 0.010000 0.045000
0.139061 0.008999 0.040231
0.472554 0.008123 0.035489
0.806103 0.007370 0.030777
0.980334 0.006742 0.026092
0.000000 0.177440 0.029068
0.152087 0.176857 0.024394
0.485770 0.176399 0.019747
0.819509 0.176065 0.015130
0.993930 0.175855 0.010540
0.000000 0.505661 0.013455
0.165752 0.505497 0.008876
0.499625 0.505456 0.004325
0.833554 0.505540 0.000000
1.000000 0.505749 0.000000
0.005425 0.835289 0.000000
0.180057 0.835543 0.000000
0.514120 0.835921 0.000000
0.848239 0.836423 0.000000
1.000000 0.837050 0.000000
0.020179 1.000000 0.000000
0.195001 1.000000 0.000000
0.529254 1.000000 0.000000
0.863563 1.000000 0.000000
1.000000 1.000000 0.000000
0.000000 0.009646 0.213690
0.140347 0.008688 0.208930
0.473859 0.007853 0.204198
0.807428 0.007143 0.199495
0.981677 0.006557 0.194820
0.000000 0.177228 0.197790
0.153438 0.176687 0.193125
0.487139 0.176271 0.188488
0.820898 0.175979 0.183880
0.995338 0.175812 0.179300
0.000000 0.505591 0.182210
0.167167 0.505469 0.177640
0.501059 0.505471 0.173098
0.835008 0.505597 0.168585
1.000000 0.505848 0.164100
0.006886 0.835362 0.166949
0.181536 0.835657 0.162474
0.515618 0.836077 0.158028
0.849757 0.836622 0.153610
1.000000 0.837291 0.149220
0.021704 1.000000 0.152008
0.196545 1.000000 0.147629
0.530817 1.000000 0.143277
0.865146 1.000000 0.138954
1.000000 1.000000 0.134659
0.000000 0.009307 0.541758
0.141640 0.008390 0.537007
0.475171 0.007598 0.532285
0.808758 0.006930 0.527592
0.983028 0.006387 0.522926
0.000000 0.177031 0.525890
0.154795 0.176532 0.521235
0.488516 0.176158 0.516608
0.822293 0.175909 0.512009
0.996753 0.175783 0.507439
0.000000 0.505536 0.510342
0.168589 0.505456 0.505782
0.502500 0.505500 0.501250
0.836468 0.505668 0.496746
1.000000 0.505961 0.492271
0.008353 0.835448 0.495114
0.183022 0.835786 0.490649
0.517124 0.836248 0.486212
0.851282 0.836835 0.481803
1.000000 0.837546 0.477423
0.023236 1.000000 0.480205
0.198095 1.000000 0.475835
0.532387 1.000000 0.471493
0.866735 1.000000 0.467180
1.000000 1.000000 0.462895
0.000000 0.008982 0.869829
0.142939 0.008107 0.865088
0.476489 0.007357 0.860376
0.810096 0.006732 0.855692
0.984384 0.006230 0.851036
0.000000 0.176847 0.853993
0.156158 0.176391 0.849348
0.489898 0.176059 0.844730
0.823695 0.175852 0.840141
0.998174 0.175769 0.835581
0.000000 0.505495 0.838478
0.170017 0.505457 0.833927
0.503947 0.505543 0.829405
0.837934 0.505754 0.824911
1.000000 0.506089 0.820445
0.009826 0.835549 0.823282
0.184515 0.835929 0.818826
0.518635 0.836434 0.814399
0.852812 0.837063 0.810000
1.000000 0.837816 0.805629
0.024773 1.000000 0.808405
0.199653 1.000000 0.804045
0.533963 1.000000 0.799713
0.868330 1.000000 0.795409
1.000000 1.000000 0.791133
0.000000 0.008671 1.000000
0.144244 0.007839 1.000000
0.477814 0.007131 1.000000
0.811440 0.006548 1.000000
0.985747 0.006088 1.000000
0.000000 0.176679 1.000000
0.157528 0.176265 1.000000
0.491288 0.175975 1.000000
0.825104 0.175810 1.000000
0.999601 0.175769 1.000000
0.000000 0.505468 1.000000
0.171451 0.505472 1.000000
0.505401 0.505601 0.998188
0.839407 0.505854 0.993704
1.000000 0.506231 0.989247
0.011306 0.835664 0.992078
0.186014 0.836087 0.987632
0.520154 0.836633 0.983214
0.854350 0.837304 0.978825
1.000000 0.838100 0.974464
0.026318 1.000000 0.977234
0.201216 1.000000 0.972883
0.535546 1.000000 0.968560
0.869932 1.000000 0.964266
1.000000 1.000000 0.960000
